svg/set/WOC/C.svg

<?xml version="1.0" encoding="UTF-8"?>
<svg id="Layer_2" data-name="Layer 2" xmlns="http://www.w3.org/2000/svg" viewBox="0 0 1031.06 1080">
  <defs>
    <style>
      .cls-1, .cls-2 {
        fill-rule: evenodd;
        stroke-width: 0px;
      }

      .cls-2 {
        fill: #fff;
      }
    </style>
  </defs>
  <g id="Layer_1-2" data-name="Layer 1">
    <path class="cls-2" d="M515.53,215.26c50.82-89.94,101.22-95.36,170.28-117.92,50.66-16.55,150.73-61.55,172.62-97.33,50.76,36.91,108.59,64.1,172.63,82.75-67.26,229.76-87.2,461.12-57.22,694.13-148.28,110.93-299.65,215.03-458.32,303.12-158.66-88.09-310.03-192.19-458.32-303.12C87.2,543.88,67.26,312.52,0,82.75,64.04,64.1,121.87,36.91,172.63,0c21.89,35.78,121.96,80.78,172.62,97.33,69.06,22.56,119.45,27.98,170.28,117.92h0Z"/>
    <path class="cls-1" d="M515.53,1035.07c-101.64-56.42-199.85-122.42-296.08-193.99,19.14-211.24,11.94-426.64-26.84-647.03,47.9,16.81,100.16,36.1,179.34,63.68,34.93,46.62,78.34,82.81,143.58,82.81s108.65-36.19,143.58-82.81c79.18-27.59,131.44-46.87,179.34-63.68-38.78,220.39-45.98,435.79-26.84,647.03-96.23,71.57-194.44,137.57-296.08,193.99ZM185.52,815.56c-25.38-19.3-50.62-38.95-75.77-58.88,12.01-213.16-5.21-413.04-43.13-603.5,32.41,9.6,60,18.38,86.99,27.47,39.88,216.25,48.82,427.63,31.91,634.92ZM845.54,815.56c-16.91-207.29-7.97-418.67,31.91-634.92,26.99-9.08,54.58-17.87,86.99-27.47-37.92,190.46-55.14,390.35-43.13,603.5-25.15,19.93-50.39,39.59-75.77,58.88h0Z"/>
    <path class="cls-1" d="M515.5,303.01c-52.7-.01-98.21-31.08-119.2-75.88L57.22,97.18c36.25-15.08,75.07-38.17,111.31-61.63,21.49,19.14,107.53,73.07,179.23,91.14,98.29,24.79,156.56,83.72,167.77,163.94,11.2-80.22,69.48-139.15,167.77-163.94,71.7-18.07,157.74-72,179.23-91.14,36.24,23.46,75.06,46.55,111.31,61.63l-339.08,129.96c-20.99,44.8-66.49,75.86-119.2,75.88h-.07Z"/>
    <path class="cls-2" d="M515.53,461.04c44.58,82.19,95.06,151.57,151.56,207.95-63.46,58.4-113.92,126.79-151.56,205.04-37.64-78.25-88.1-146.64-151.56-205.04,56.5-56.38,106.98-125.76,151.56-207.95Z"/>
  </g>
</svg>

<?xml version="1.0" encoding="UTF-8" standalone="no"?>
<svg
   id="Layer_2"
   data-name="Layer 2"
   viewBox="0 0 1031.06 1080.01"
   version="1.1"
   width="1031.0601"
   height="1080.01"
   xmlns="http://www.w3.org/2000/svg"
   xmlns:svg="http://www.w3.org/2000/svg">
  <defs
     id="defs1">
    <style
       id="style1">
      .cls-1, .cls-2 {
        fill-rule: evenodd;
        stroke-width: 0px;
      }

      .cls-2 {
        fill: #fff;
      }
    </style>
  </defs>
  <g
     id="Layer_1-2"
     data-name="Layer 1">
    <path
       class="cls-2"
       d="M 515.53,215.26 C 566.35,125.32 616.75,119.9 685.81,97.34 736.47,80.79 836.54,35.79 858.43,0.01 909.19,36.92 967.02,64.11 1031.06,82.76 963.8,312.52 943.86,543.88 973.84,776.89 825.56,887.82 674.19,991.92 515.52,1080.01 356.86,991.92 205.49,887.82 57.2,776.89 87.2,543.88 67.26,312.52 0,82.75 64.04,64.1 121.87,36.91 172.63,0 c 21.89,35.78 121.96,80.78 172.62,97.33 69.06,22.56 119.45,27.98 170.28,117.92 v 0 z"
       id="path1" />
    <path
       class="cls-1"
       d="M 515.53,1035.07 C 413.89,978.65 315.68,912.65 219.45,841.08 238.59,629.84 231.39,414.44 192.61,194.05 c 47.9,16.81 100.16,36.1 179.34,63.68 34.93,46.62 78.34,82.81 143.58,82.81 65.24,0 108.65,-36.19 143.58,-82.81 79.18,-27.59 131.44,-46.87 179.34,-63.68 -38.78,220.39 -45.98,435.79 -26.84,647.03 -96.23,71.57 -194.44,137.57 -296.08,193.99 z M 185.52,815.56 c -25.38,-19.3 -50.62,-38.95 -75.77,-58.88 12.01,-213.16 -5.21,-413.04 -43.13,-603.5 32.41,9.6 60,18.38 86.99,27.47 39.88,216.25 48.82,427.63 31.91,634.92 z m 660.02,0 c -16.91,-207.29 -7.97,-418.67 31.91,-634.92 26.99,-9.08 54.58,-17.87 86.99,-27.47 -37.92,190.46 -55.14,390.35 -43.13,603.5 -25.15,19.93 -50.39,39.59 -75.77,58.88 v 0 z"
       id="path2" />
    <path
       class="cls-1"
       d="M 515.5,303.01 C 462.8,303 417.29,271.93 396.3,227.13 L 57.22,97.18 C 93.47,82.1 132.29,59.01 168.53,35.55 c 21.49,19.14 107.53,73.07 179.23,91.14 98.29,24.79 156.56,83.72 167.77,163.94 11.2,-80.22 69.48,-139.15 167.77,-163.94 71.7,-18.07 157.74,-72 179.23,-91.14 36.24,23.46 75.06,46.55 111.31,61.63 L 634.76,227.14 c -20.99,44.8 -66.49,75.86 -119.2,75.88 h -0.07 z"
       id="path3" />
    <path
       class="cls-2"
       d="m 515.53,461.04 c 44.58,82.19 95.06,151.57 151.56,207.95 -63.46,58.4 -113.92,126.79 -151.56,205.04 -37.64,-78.25 -88.1,-146.64 -151.56,-205.04 56.5,-56.38 106.98,-125.76 151.56,-207.95 z"
       id="path4" />
  </g>
</svg>
